packages/icons/svgs/duotone/Source=design.svg

<svg width="24" height="24" viewBox="0 0 24 24" fill="none" xmlns="http://www.w3.org/2000/svg">
<path fill-rule="evenodd" clip-rule="evenodd" d="M18.5 5C16.567 5 15 6.567 15 8.5C15 10.433 16.567 12 18.5 12C20.433 12 22 10.433 22 8.5C22 6.567 20.433 5 18.5 5ZM13 8.5C13 5.46243 15.4624 3 18.5 3C21.5376 3 24 5.46243 24 8.5C24 11.5376 21.5376 14 18.5 14C15.4624 14 13 11.5376 13 8.5Z" fill="black" style="fill:black;fill-opacity:1;"/>
<path fill-rule="evenodd" clip-rule="evenodd" d="M5 15C5 14.4477 5.44772 14 6 14H13C13.5523 14 14 14.4477 14 15V22C14 22.5523 13.5523 23 13 23H6C5.44772 23 5 22.5523 5 22V15ZM7 16V21H12V16H7Z" fill="black" style="fill:black;fill-opacity:1;"/>
<path opacity="0.5" fill-rule="evenodd" clip-rule="evenodd" d="M6 2C6.35886 2 6.6902 2.19229 6.86824 2.50386L10.8682 9.50386C11.0451 9.81336 11.0438 10.1936 10.8649 10.5019C10.686 10.8102 10.3565 11 10 11H2C1.64353 11 1.31401 10.8102 1.13509 10.5019C0.956168 10.1936 0.954898 9.81336 1.13176 9.50386L5.13176 2.50386C5.3098 2.19229 5.64114 2 6 2ZM3.72318 9H8.27682L6 5.01556L3.72318 9Z" fill="black" style="fill:black;fill-opacity:1;"/>
</svg>

<svg xmlns="http://www.w3.org/2000/svg" width="24" height="24" viewBox="0 0 24 24"><path fill-rule="evenodd" d="M18.5 5a3.5 3.5 0 1 0 0 7 3.5 3.5 0 0 0 0-7M13 8.5a5.5 5.5 0 1 1 11 0 5.5 5.5 0 0 1-11 0M5 15a1 1 0 0 1 1-1h7a1 1 0 0 1 1 1v7a1 1 0 0 1-1 1H6a1 1 0 0 1-1-1zm2 1v5h5v-5z" clip-rule="evenodd"/><path fill-rule="evenodd" d="M6 2a1 1 0 0 1 .868.504l4 7A1 1 0 0 1 10 11H2a1 1 0 0 1-.868-1.496l4-7A1 1 0 0 1 6 2M3.723 9h4.554L6 5.016z" clip-rule="evenodd" opacity=".5"/></svg>
